sabine/images/loudness.svg

<?xml version="1.0" encoding="UTF-8" standalone="no"?>
<svg
   xmlns:dc="http://purl.org/dc/elements/1.1/"
   xmlns:cc="http://creativecommons.org/ns#"
   xmlns:rdf="http://www.w3.org/1999/02/22-rdf-syntax-ns#"
   xmlns:svg="http://www.w3.org/2000/svg"
   xmlns="http://www.w3.org/2000/svg"
   id="svg3352"
   version="1.1"
   viewBox="0 0 80 100"
   height="100pt"
   width="80pt">
  <metadata
     id="metadata3363">
    <rdf:RDF>
      <cc:Work
         rdf:about="">
        <dc:format>image/svg+xml</dc:format>
        <dc:type
           rdf:resource="http://purl.org/dc/dcmitype/StillImage" />
        <dc:title></dc:title>
      </cc:Work>
    </rdf:RDF>
  </metadata>
  <defs
     id="defs3361" />
  <g
     transform="matrix(1.0378202,0,0,1.0241135,-12.978754,-1.1744069)"
     id="#000000ff">
    <path
       style="opacity:1;fill:#000000"
       id="path3355"
       d="m 47.46,6.67 c 13.77,-3.26 28.85,6.29 31.73,20.14 1.81,10.08 0.6,21.3 -5.71,29.69 -5.13,6.82 -10.94,13.18 -15.2,20.64 -2.32,3.76 -3.88,8.02 -6.76,11.42 -4.88,5.33 -13.4,6.93 -19.85,3.65 -5.68,-2.69 -9.73,-8.8 -9.52,-15.13 -0.16,-1.79 1.94,-2.46 3.23,-1.57 0.97,3.26 1.17,6.93 3.55,9.59 3.78,4.91 11.14,6.28 16.5,3.23 3.12,-1.51 4.82,-4.65 6.37,-7.58 3.93,-7.44 8.53,-14.53 14.01,-20.92 4.31,-5.12 8.73,-10.69 9.57,-17.56 0.85,-6.78 1.31,-14.22 -2.32,-20.33 -4,-7.56 -12.59,-12.36 -21.12,-11.85 -10.39,0.3 -19.93,8.63 -21.47,18.93 -0.41,1.97 -0.28,4.17 -1.45,5.89 -1.6,0.38 -2.81,-0.23 -2.85,-1.96 C 25.74,20.58 35.4,9.02 47.46,6.67 Z" />
    <path
       style="opacity:1;fill:#000000"
       id="path3357"
       d="m 38.11,25.03 c 3.63,-6.96 12.45,-10.76 19.94,-8.16 6.86,2.04 12.03,8.92 11.79,16.11 0.3,1.9 -1.96,2.46 -3.22,1.48 -1.01,-3.44 -1.27,-7.36 -3.99,-10.02 -4.7,-5.79 -14.46,-5.8 -19.19,-0.04 -3.26,3.08 -3.1,7.75 -4.11,11.78 -1.7,2.97 -4.5,5.24 -5.58,8.58 3.36,1.83 8.2,3.73 8.2,8.28 0.12,4.69 -6.13,5.01 -7.51,8.92 -0.76,2.33 -0.14,5.21 1.94,6.66 1.7,1.1 3.72,1.53 5.59,2.26 -0.09,0.71 -0.29,2.13 -0.39,2.84 -6.47,1.44 -12.89,-5.23 -11.33,-11.65 0.89,-4.31 4.81,-6.8 8.21,-9.07 -2.2,-3.37 -7.63,-3.67 -8.33,-8.09 -0.69,-4.13 3.14,-6.62 5.12,-9.66 1.18,-3.34 1.01,-7.1 2.86,-10.22 z" />
  </g>
</svg>

<?xml version="1.0" encoding="UTF-8" ?>
<!DOCTYPE svg PUBLIC "-//W3C//DTD SVG 1.1//EN" "http://www.w3.org/Graphics/SVG/1.1/DTD/svg11.dtd">
<svg width="100pt" height="100pt" viewBox="0 0 100 100" version="1.1" xmlns="http://www.w3.org/2000/svg">
<g id="#000000ff">
<path fill="#000000" opacity="1.00" d=" M 47.46 6.67 C 61.23 3.41 76.31 12.96 79.19 26.81 C 81.00 36.89 79.79 48.11 73.48 56.50 C 68.35 63.32 62.54 69.68 58.28 77.14 C 55.96 80.90 54.40 85.16 51.52 88.56 C 46.64 93.89 38.12 95.49 31.67 92.21 C 25.99 89.52 21.94 83.41 22.15 77.08 C 21.99 75.29 24.09 74.62 25.38 75.51 C 26.35 78.77 26.55 82.44 28.93 85.10 C 32.71 90.01 40.07 91.38 45.43 88.33 C 48.55 86.82 50.25 83.68 51.80 80.75 C 55.73 73.31 60.33 66.22 65.81 59.83 C 70.12 54.71 74.54 49.14 75.38 42.27 C 76.23 35.49 76.69 28.05 73.06 21.94 C 69.06 14.38 60.47 9.58 51.94 10.09 C 41.55 10.39 32.01 18.72 30.47 29.02 C 30.06 30.99 30.19 33.19 29.02 34.91 C 27.42 35.29 26.21 34.68 26.17 32.95 C 25.74 20.58 35.40 9.02 47.46 6.67 Z" />
<path fill="#000000" opacity="1.00" d=" M 38.11 25.03 C 41.74 18.07 50.56 14.27 58.05 16.87 C 64.91 18.91 70.08 25.79 69.84 32.98 C 70.14 34.88 67.88 35.44 66.62 34.46 C 65.61 31.02 65.35 27.10 62.63 24.44 C 57.93 18.65 48.17 18.64 43.44 24.40 C 40.18 27.48 40.34 32.15 39.33 36.18 C 37.63 39.15 34.83 41.42 33.75 44.76 C 37.11 46.59 41.95 48.49 41.95 53.04 C 42.07 57.73 35.82 58.05 34.44 61.96 C 33.68 64.29 34.30 67.17 36.38 68.62 C 38.08 69.72 40.10 70.15 41.97 70.88 C 41.88 71.59 41.68 73.01 41.58 73.72 C 35.11 75.16 28.69 68.49 30.25 62.07 C 31.14 57.76 35.06 55.27 38.46 53.00 C 36.26 49.63 30.83 49.33 30.13 44.91 C 29.44 40.78 33.27 38.29 35.25 35.25 C 36.43 31.91 36.26 28.15 38.11 25.03 Z" />
</g>
</svg>
